X:5
T:Bung Your Eye. WCa.05
M:6/8
L:1/8
Q:3/8=120
B:Wm. Calvert MS, 1812, Leyburn, Yorks.
A:North Yorkshire, England
Z:vmp.Chris Partington, May 2003
K:Am
E|ABA c2d|edcB2A|GAG B2c|dge dBG|
ABA c2d|edc Bcd|e2A BAG|A3A2:|
|:G|cdeg2a|gec gec|GAGB2c|dgd dBG|
cdeg2a|gec deg|a2A BAG|A3A2:|

